resources/haticons/SVG/zorin.svg

<!-- Generated by IcoMoon.io -->
<svg version="1.1" xmlns="http://www.w3.org/2000/svg" width="24" height="24" viewBox="0 0 24 24">
<title>zorin</title>
<path d="M4 18.944l1.995 3.456h12.010l1.995-3.456h-16zM24 12l-2.013 3.488h-12.771l12.771-6.976 2.013 3.488zM0 12l2.013-3.488h12.771l-12.771 6.976-2.013-3.488zM4 5.056l1.995-3.456h12.010l1.995 3.456h-16z"></path>
</svg>

<svg xmlns="http://www.w3.org/2000/svg" width="24" height="24"><path d="M4 18.944L5.995 22.4h12.01L20 18.944H4zM24 12l-2.013 3.488H9.216l12.771-6.976L24 12zM0 12l2.013-3.488h12.771L2.013 15.488 0 12zm4-6.944L5.995 1.6h12.01L20 5.056H4z"/></svg>
